img/logo.svg

<svg width="45" height="28" viewBox="0 0 45 28" fill="none" xmlns="http://www.w3.org/2000/svg">
<path id="W." fill-rule="evenodd" clip-rule="evenodd" d="M16.6919 27.3123C16.5544 27.4433 16.3743 27.5088 16.1516 27.5088H8.74386C8.52117 27.5088 8.33778 27.4433 8.19368 27.3123C8.04959 27.1813 7.97754 26.9913 7.97754 26.7425V25.4653C7.97754 25.2688 7.96117 25.0952 7.92842 24.9446C7.89567 24.7939 7.84 24.568 7.7614 24.2667L2.25965 2.92772C2.16795 2.58713 2.05661 2.33825 1.92561 2.18105C1.79462 2.02386 1.60468 1.89942 1.35579 1.80772L0.491228 1.53263C0.320936 1.45404 0.196491 1.34596 0.117895 1.20842C0.0392983 1.07088 0 0.923509 0 0.766316C0 0.530526 0.0785965 0.34386 0.235789 0.206316C0.392982 0.0687719 0.628772 0 0.943158 0H12.32C12.6475 0 12.8898 0.0687719 13.047 0.206316C13.2042 0.34386 13.2828 0.530526 13.2828 0.766316C13.2828 1.12 13.106 1.35579 12.7523 1.47368L11.7305 1.70947C11.4685 1.78807 11.3048 1.94854 11.2393 2.19088L11.219 2.28528C11.1818 2.51381 11.2147 2.8 11.3179 3.14386L15.8807 21.3256L19.7775 7.65895L18.5488 2.92772C18.4309 2.50854 18.3228 2.2269 18.2246 2.08281C18.1263 1.93871 17.9855 1.83392 17.8021 1.76842L16.9768 1.47368C16.7804 1.39509 16.6395 1.30012 16.5544 1.18877C16.4692 1.07743 16.4267 0.943158 16.4267 0.785965C16.4267 0.537076 16.5085 0.34386 16.6723 0.206316C16.836 0.0687719 17.0751 0 17.3895 0H28.5305C28.858 0 29.1004 0.0687719 29.2575 0.206316C29.4147 0.34386 29.4933 0.537076 29.4933 0.785965C29.4933 0.956257 29.4442 1.10363 29.346 1.22807C29.2477 1.35251 29.0938 1.45404 28.8842 1.53263L28.0196 1.76842C27.7708 1.84702 27.6136 1.98784 27.5481 2.19088L27.5294 2.26329C27.488 2.469 27.5139 2.77562 27.607 3.18316L32.1523 21.2954L36.0365 4.81403C36.2068 4.09357 36.1577 3.4648 35.8891 2.92772C35.6206 2.39064 35.0933 1.97801 34.3074 1.68982L33.8751 1.53263C33.6917 1.44094 33.5574 1.33942 33.4723 1.22807C33.3871 1.11673 33.3446 0.969357 33.3446 0.785965C33.3446 0.550175 33.4264 0.360234 33.5902 0.21614C33.7539 0.0720468 33.9995 0 34.327 0H40.5754C40.9029 0 41.1485 0.0720468 41.3123 0.21614C41.476 0.360234 41.5579 0.550175 41.5579 0.785965C41.5579 0.969357 41.5088 1.11673 41.4105 1.22807C41.3123 1.33942 41.1453 1.45404 40.9095 1.57193L40.4379 1.78807C39.8615 2.03696 39.3506 2.42667 38.9053 2.95719C38.4599 3.48772 38.1324 4.19181 37.9228 5.06947L33.5607 23.9523C33.469 24.2929 33.4068 24.5647 33.374 24.7677C33.3413 24.9708 33.3249 25.2033 33.3249 25.4653V26.7425C33.3249 26.9913 33.2529 27.1813 33.1088 27.3123C32.9647 27.4433 32.7878 27.5088 32.5782 27.5088H25.0723C24.8496 27.5088 24.6695 27.4433 24.5319 27.3123C24.3944 27.1813 24.3256 26.9913 24.3256 26.7425V25.4653C24.3256 25.2819 24.3092 25.1149 24.2765 24.9642L24.2607 24.8946C24.2254 24.7455 24.1684 24.5361 24.0898 24.2667L20.706 11.2351L17.134 23.9523C17.0685 24.175 17.0129 24.4042 16.967 24.64C16.9212 24.8758 16.8982 25.1509 16.8982 25.4653V26.7425C16.8982 26.9913 16.8295 27.1813 16.6919 27.3123ZM42.8253 27.3909C42.1637 27.797 41.4138 28 40.5754 28C39.7633 28 39.0264 27.797 38.3649 27.3909C37.7034 26.9848 37.1794 26.4379 36.793 25.7502C36.4066 25.0625 36.2133 24.3191 36.2133 23.52C36.2133 22.7078 36.4066 21.9677 36.793 21.2996C37.1794 20.6316 37.7034 20.0978 38.3649 19.6982C39.0264 19.2987 39.7633 19.0989 40.5754 19.0989C41.4138 19.0989 42.1637 19.2987 42.8253 19.6982C43.4868 20.0978 44.0108 20.6316 44.3972 21.2996C44.7836 21.9677 44.9768 22.7078 44.9768 23.52C44.9768 24.3191 44.7836 25.0625 44.3972 25.7502C44.0108 26.4379 43.4868 26.9848 42.8253 27.3909Z" fill="#00001A"/>
</svg>

<svg xmlns="http://www.w3.org/2000/svg" width="45" height="28" fill="none"><path fill="#00001A" fill-rule="evenodd" d="M16.7 27.31a.75.75 0 0 1-.55.2h-7.4a.79.79 0 0 1-.56-.2c-.14-.13-.21-.32-.21-.57v-1.27c0-.2-.02-.37-.05-.53a18.6 18.6 0 0 0-.17-.67L2.26 2.93a2 2 0 0 0-.33-.75 1.31 1.31 0 0 0-.57-.37l-.87-.28a.8.8 0 0 1-.37-.32A.88.88 0 0 1 0 .77.7.7 0 0 1 .24.2C.39.07.63 0 .94 0h11.38c.33 0 .57.07.73.2a.7.7 0 0 1 .23.57c0 .35-.17.59-.53.7l-1.02.24a.67.67 0 0 0-.5.48l-.01.1c-.04.22 0 .51.1.85l4.56 18.19 3.9-13.67-1.23-4.73c-.12-.42-.23-.7-.33-.85a.83.83 0 0 0-.42-.31l-.82-.3a.97.97 0 0 1-.43-.28.64.64 0 0 1-.12-.4c0-.25.08-.45.24-.58.17-.14.4-.21.72-.21h11.14c.33 0 .57.07.73.2.15.14.23.34.23.59a.7.7 0 0 1-.14.44c-.1.12-.26.22-.47.3l-.86.24c-.25.08-.4.22-.47.42l-.02.07c-.04.2-.02.52.08.92l4.54 18.12L36.04 4.8c.17-.72.12-1.35-.15-1.88-.27-.54-.8-.95-1.58-1.24l-.43-.16c-.19-.09-.32-.2-.4-.3a.7.7 0 0 1-.14-.44c0-.24.09-.43.25-.57.16-.15.4-.22.74-.22h6.25c.32 0 .57.07.73.22.17.14.25.33.25.57 0 .18-.05.33-.15.44-.1.1-.26.22-.5.34l-.47.22c-.58.25-1.09.64-1.53 1.17a5.07 5.07 0 0 0-.99 2.1l-4.36 18.9c-.1.33-.15.6-.19.8-.03.21-.05.44-.05.7v1.28c0 .25-.07.44-.21.57a.76.76 0 0 1-.53.2h-7.5a.75.75 0 0 1-.55-.2c-.14-.13-.2-.32-.2-.57v-1.27c0-.19-.02-.36-.05-.5l-.02-.08-.17-.62-3.38-13.03-3.58 12.71c-.06.23-.12.45-.16.69-.05.24-.07.51-.07.83v1.27c0 .25-.07.44-.2.57Zm26.13.08c-.67.4-1.42.61-2.25.61-.82 0-1.55-.2-2.22-.6a4.48 4.48 0 0 1 0-7.7c.67-.4 1.4-.6 2.22-.6a4.27 4.27 0 0 1 3.82 2.2 4.48 4.48 0 0 1-1.57 6.1Z" clip-rule="evenodd"/></svg>
